; generated by PrusaSlicer 2.5.0+MacOS-arm64 on 2022-11-30 at 06:24:34 UTC

; 

; external perimeters extrusion width = 0.45mm
; perimeters extrusion width = 0.45mm
; infill extrusion width = 0.45mm
; solid infill extrusion width = 0.45mm
; top infill extrusion width = 0.40mm
; first layer extrusion width = 0.42mm

M73 P0 R173
M73 Q0 S173
M201 X1000 Y1000 Z200 E5000 ; sets maximum accelerations, mm/sec^2
M203 X200 Y200 Z12 E120 ; sets maximum feedrates, mm / sec
M204 P1250 R1250 T1250 ; sets acceleration (P, T) and retract acceleration (R), mm/sec^2
M205 X8.00 Y8.00 Z0.40 E4.50 ; sets the jerk limits, mm/sec
M205 S0 T0 ; sets the minimum extruding and travel feed rate, mm/sec
M107
;TYPE:Custom
M862.3 P "MK3S" ; printer model check
M862.1 P0.4 ; nozzle diameter check
M115 U3.10.1 ; tell printer latest fw version
G90 ; use absolute coordinates
M83 ; extruder relative mode
M104 S230 ; set extruder temp
M140 S85 ; set bed temp
M190 S85 ; wait for bed temp
M109 S230 ; wait for extruder temp
G28 W ; home all without mesh bed level
G80 ; mesh bed leveling
G1 Z0.2 F720
G1 Y-3 F1000 ; go outside print area
G92 E0
G1 X60 E9 F1000 ; intro line
G1 X100 E12.5 F1000 ; intro line
G92 E0
M221 S95

; Don't change E values below. Excessive value can damage the printer.
M907 E430 ; set extruder motor current
G21 ; set units to millimeters
G90 ; use absolute coordinates
M83 ; use relative distances for extrusion
M900 K0.08 ; Filament gcode LA 1.5
M900 K45 ; Filament gcode LA 1.0
M107
;LAYER_CHANGE
;Z:0.2
;HEIGHT:0.2
;BEFORE_LAYER_CHANGE
G92 E0.0
;0.2


G1 E-1 F2100
G1 Z.2 F720
;AFTER_LAYER_CHANGE
;0.2
G1 Z.4
G1 X53.847 Y64.252 F10800
G1 Z.2 F720
G1 E1 F2100
M204 S800
;TYPE:Skirt/Brim
;WIDTH:0.42
G1 F1200
G1 X54.21 Y63.948 E.01484
G1 X55.15 Y63.754 E.03008
G1 X194.85 Y63.754 E4.38019
G1 X196.157 Y64.146 E.04278
G1 X197.033 Y65.192 E.04278
G1 X197.227 Y66.131 E.03008
G1 X197.227 Y143.869 E2.4374
G1 X196.835 Y145.176 E.04278
G1 X195.79 Y146.052 E.04278
G1 X194.85 Y146.246 E.03008
G1 X55.15 Y146.246 E4.38019
G1 X53.843 Y145.854 E.04278
M73 P0 R172
G1 X52.967 Y144.808 E.04278
G1 X52.773 Y143.869 E.03008
G1 X52.773 Y66.131 E2.4374
G1 X53.165 Y64.824 E.04278
G1 X53.801 Y64.29 E.02605
M204 S1000
; printing object BatteryBoxInset id:0 copy 0
;WIPE_START
G1 F8640
G1 X54.21 Y63.948 E-.12318
G1 X55.15 Y63.754 E-.22155
G1 X57.771 Y63.754 E-.60527
;WIPE_END
G1 E-.05 F2100
G1 Z.4 F720
G1 X55.937 Y66.918 F10800
G1 Z.2 F720
G1 E1 F2100
M204 S800
;TYPE:Perimeter
;WIDTH:0.419999
G1 F1200
G1 X194.063 Y66.918 E4.33083
G1 X194.063 Y143.082 E2.38804
G1 X55.937 Y143.082 E4.33083
G1 X55.937 Y66.978 E2.38616
M204 S1000
M73 Q0 S172
G1 X55.56 Y66.541 F10800
M204 S800
;TYPE:External perimeter
G1 F1200
G1 X194.44 Y66.541 E4.35448
G1 X194.44 Y143.459 E2.41169
G1 X55.56 Y143.459 E4.35448
G1 X55.56 Y66.601 E2.40981
M204 S1000
G1 X55.954 Y66.608 F10800
;WIPE_START
G1 F8640
G1 X59.674 Y66.599 E-.95
;WIPE_END
G1 E-.05 F2100
G1 Z.4 F720
G1 X193.187 Y67.031 F10800
G1 Z.2 F720
G1 E1 F2100
M204 S800
;TYPE:Solid infill
;WIDTH:0.420123
G1 F1200
G1 X193.78 Y67.624 E.0263
G1 X193.78 Y68.158 E.01673
G1 X192.824 Y67.201 E.04243
G1 X192.29 Y67.201 E.01673
G1 X193.78 Y68.691 E.06609
G1 X193.78 Y69.225 E.01673
G1 X191.757 Y67.201 E.08975
G1 X191.223 Y67.201 E.01673
G1 X193.78 Y69.758 E.11342
G1 X193.78 Y70.292 E.01673
G1 X190.69 Y67.201 E.13708
G1 X190.156 Y67.201 E.01673
G1 X193.78 Y70.825 E.16074
G1 X193.78 Y71.358 E.01673
G1 X189.623 Y67.201 E.1844
G1 X189.089 Y67.201 E.01673
G1 X193.78 Y71.892 E.20806
G1 X193.78 Y72.425 E.01673
G1 X188.556 Y67.201 E.23172
G1 X188.022 Y67.201 E.01673
G1 X193.78 Y72.959 E.25539
G1 X193.78 Y73.492 E.01673
G1 X187.489 Y67.201 E.27905
G1 X186.956 Y67.201 E.01673
G1 X193.78 Y74.026 E.30271
G1 X193.78 Y74.559 E.01673
G1 X186.422 Y67.201 E.32637
G1 X185.889 Y67.201 E.01673
G1 X193.78 Y75.093 E.35003
G1 X193.78 Y75.626 E.01673
G1 X185.355 Y67.201 E.37369
G1 X184.822 Y67.201 E.01673
G1 X193.78 Y76.159 E.39736
G1 X193.78 Y76.693 E.01673
G1 X184.288 Y67.201 E.42102
G1 X183.755 Y67.201 E.01673
M73 P0 R171
G1 X193.78 Y77.226 E.44468
G1 X193.78 Y77.76 E.01673
G1 X183.221 Y67.201 E.46834
G1 X182.688 Y67.201 E.01673
G1 X193.78 Y78.293 E.492
G1 X193.78 Y78.827 E.01673
G1 X182.155 Y67.201 E.51566
G1 X181.621 Y67.201 E.01673
G1 X193.78 Y79.36 E.53933
G1 X193.78 Y79.894 E.01673
G1 X181.088 Y67.201 E.56299
G1 X180.554 Y67.201 E.01673
G1 X193.78 Y80.427 E.58665
G1 X193.78 Y80.96 E.01673
G1 X180.021 Y67.201 E.61031
G1 X179.487 Y67.201 E.01673
G1 X193.78 Y81.494 E.63397
G1 X193.78 Y82.027 E.01673
G1 X178.954 Y67.201 E.65763
G1 X178.42 Y67.201 E.01673
G1 X193.78 Y82.561 E.68129
G1 X193.78 Y83.094 E.01673
G1 X177.887 Y67.201 E.70496
G1 X177.354 Y67.201 E.01673
G1 X193.78 Y83.628 E.72862
G1 X193.78 Y84.161 E.01673
G1 X176.82 Y67.201 E.75228
G1 X176.287 Y67.201 E.01673
G1 X193.78 Y84.695 E.77594
G1 X193.78 Y85.228 E.01673
G1 X175.753 Y67.201 E.7996
G1 X175.22 Y67.201 E.01673
G1 X193.78 Y85.761 E.82326
G1 X193.78 Y86.295 E.01673
G1 X174.686 Y67.201 E.84693
G1 X174.153 Y67.201 E.01673
G1 X193.78 Y86.828 E.87059
G1 X193.78 Y87.362 E.01673
G1 X173.619 Y67.201 E.89425
G1 X173.086 Y67.201 E.01673
G1 X193.78 Y87.895 E.91791
G1 X193.78 Y88.429 E.01673
M73 P1 R171
M73 Q1 S172
G1 X172.553 Y67.201 E.94157
G1 X172.019 Y67.201 E.01673
M73 Q1 S171
G1 X193.78 Y88.962 E.96523
G1 X193.78 Y89.496 E.01673
G1 X171.486 Y67.201 E.9889
G1 X170.952 Y67.201 E.01673
G1 X193.78 Y90.029 E1.01256
G1 X193.78 Y90.562 E.01673
G1 X170.419 Y67.201 E1.03622
G1 X169.885 Y67.201 E.01673
G1 X193.78 Y91.096 E1.05988
G1 X193.78 Y91.629 E.01673
G1 X169.352 Y67.201 E1.08354
G1 X168.818 Y67.201 E.01673
G1 X193.78 Y92.163 E1.1072
G1 X193.78 Y92.696 E.01673
G1 X168.285 Y67.201 E1.13087
G1 X167.752 Y67.201 E.01673
G1 X193.78 Y93.23 E1.15453
G1 X193.78 Y93.763 E.01673
G1 X167.218 Y67.201 E1.17819
G1 X166.685 Y67.201 E.01673
G1 X193.78 Y94.297 E1.20185
G1 X193.78 Y94.83 E.01673
G1 X166.151 Y67.201 E1.22551
G1 X165.618 Y67.201 E.01673
G1 X193.78 Y95.363 E1.24917
G1 X193.78 Y95.897 E.01673
G1 X165.084 Y67.201 E1.27284
G1 X164.551 Y67.201 E.01673
G1 X193.78 Y96.43 E1.2965
G1 X193.78 Y96.964 E.01673
G1 X164.017 Y67.201 E1.32016
G1 X163.484 Y67.201 E.01673
G1 X193.78 Y97.497 E1.34382
G1 X193.78 Y98.031 E.01673
G1 X162.951 Y67.201 E1.36748
G1 X162.417 Y67.201 E.01673
G1 X193.78 Y98.564 E1.39114
G1 X193.78 Y99.098 E.01673
M73 P1 R170
G1 X161.884 Y67.201 E1.4148
G1 X161.35 Y67.201 E.01673
G1 X193.78 Y99.631 E1.43847
G1 X193.78 Y100.164 E.01673
G1 X160.817 Y67.201 E1.46213
G1 X160.283 Y67.201 E.01673
G1 X193.78 Y100.698 E1.48579
G1 X193.78 Y101.231 E.01673
G1 X159.75 Y67.201 E1.50945
G1 X159.216 Y67.201 E.01673
G1 X193.78 Y101.765 E1.53311
G1 X193.78 Y102.298 E.01673
G1 X158.683 Y67.201 E1.55677
G1 X158.15 Y67.201 E.01673
G1 X193.78 Y102.832 E1.58044
G1 X193.78 Y103.365 E.01673
G1 X157.616 Y67.201 E1.6041
G1 X157.083 Y67.201 E.01673
G1 X193.78 Y103.899 E1.62776
G1 X193.78 Y104.432 E.01673
M73 Q1 S170
G1 X156.549 Y67.201 E1.65142
G1 X156.016 Y67.201 E.01673
G1 X193.78 Y104.965 E1.67508
G1 X193.78 Y105.499 E.01673
G1 X155.482 Y67.201 E1.69874
G1 X154.949 Y67.201 E.01673
G1 X193.78 Y106.032 E1.72241
G1 X193.78 Y106.566 E.01673
G1 X154.415 Y67.201 E1.74607
G1 X153.882 Y67.201 E.01673
G1 X193.78 Y107.099 E1.76973
G1 X193.78 Y107.633 E.01673
G1 X153.349 Y67.201 E1.79339
G1 X152.815 Y67.201 E.01673
G1 X193.78 Y108.166 E1.81705
G1 X193.78 Y108.7 E.01673
G1 X152.282 Y67.201 E1.84071
G1 X151.748 Y67.201 E.01673
G1 X193.78 Y109.233 E1.86438
G1 X193.78 Y109.766 E.01673
G1 X151.215 Y67.201 E1.88804
G1 X150.681 Y67.201 E.01673
G1 X193.78 Y110.3 E1.9117
G1 X193.78 Y110.833 E.01673
M73 P1 R169
G1 X150.148 Y67.201 E1.93536
G1 X149.614 Y67.201 E.01673
G1 X193.78 Y111.367 E1.95902
G1 X193.78 Y111.9 E.01673
M73 P2 R169
M73 Q2 S170
G1 X149.081 Y67.201 E1.98268
G1 X148.548 Y67.201 E.01673
G1 X193.78 Y112.434 E2.00635
G1 X193.78 Y112.967 E.01673
G1 X148.014 Y67.201 E2.03001
G1 X147.481 Y67.201 E.01673
G1 X193.78 Y113.501 E2.05367
G1 X193.78 Y114.034 E.01673
G1 X146.947 Y67.201 E2.07733
G1 X146.414 Y67.201 E.01673
G1 X193.78 Y114.568 E2.10099
G1 X193.78 Y115.101 E.01673
M73 Q2 S169
G1 X145.88 Y67.201 E2.12465
G1 X145.347 Y67.201 E.01673
G1 X193.78 Y115.634 E2.14831
G1 X193.78 Y116.168 E.01673
G1 X144.813 Y67.201 E2.17198
G1 X144.28 Y67.201 E.01673
G1 X193.78 Y116.701 E2.19564
G1 X193.78 Y117.235 E.01673
G1 X143.747 Y67.201 E2.2193
G1 X143.213 Y67.201 E.01673
G1 X193.78 Y117.768 E2.24296
G1 X193.78 Y118.302 E.01673
G1 X142.68 Y67.201 E2.26662
G1 X142.146 Y67.201 E.01673
G1 X193.78 Y118.835 E2.29028
G1 X193.78 Y119.369 E.01673
G1 X141.613 Y67.201 E2.31395
G1 X141.079 Y67.201 E.01673
G1 X193.78 Y119.902 E2.33761
G1 X193.78 Y120.435 E.01673
M73 P2 R168
G1 X140.546 Y67.201 E2.36127
G1 X140.012 Y67.201 E.01673
G1 X193.78 Y120.969 E2.38493
G1 X193.78 Y121.502 E.01673
G1 X139.479 Y67.201 E2.40859
G1 X138.946 Y67.201 E.01673
G1 X193.78 Y122.036 E2.43225
G1 X193.78 Y122.569 E.01673
G1 X138.412 Y67.201 E2.45592
G1 X137.879 Y67.201 E.01673
G1 X193.78 Y123.103 E2.47958
G1 X193.78 Y123.636 E.01673
M73 Q2 S168
G1 X137.345 Y67.201 E2.50324
G1 X136.812 Y67.201 E.01673
G1 X193.78 Y124.17 E2.5269
G1 X193.78 Y124.703 E.01673
G1 X136.278 Y67.201 E2.55056
G1 X135.745 Y67.201 E.01673
G1 X193.78 Y125.236 E2.57422
G1 X193.78 Y125.77 E.01673
G1 X135.211 Y67.201 E2.59789
G1 X134.678 Y67.201 E.01673
G1 X193.78 Y126.303 E2.62155
G1 X193.78 Y126.837 E.01673
M73 P3 R168
M73 Q3 S168
G1 X134.144 Y67.201 E2.64521
G1 X133.611 Y67.201 E.01673
G1 X193.78 Y127.37 E2.66887
G1 X193.78 Y127.904 E.01673
G1 X133.078 Y67.201 E2.69253
G1 X132.544 Y67.201 E.01673
M73 P3 R167
G1 X193.78 Y128.437 E2.71619
G1 X193.78 Y128.971 E.01673
G1 X132.011 Y67.201 E2.73985
G1 X131.477 Y67.201 E.01673
G1 X193.78 Y129.504 E2.76352
G1 X193.78 Y130.037 E.01673
G1 X130.944 Y67.201 E2.78718
G1 X130.41 Y67.201 E.01673
G1 X193.78 Y130.571 E2.81084
G1 X193.78 Y131.104 E.01673
M73 Q3 S167
G1 X129.877 Y67.201 E2.8345
G1 X129.343 Y67.201 E.01673
G1 X193.78 Y131.638 E2.85816
G1 X193.78 Y132.171 E.01673
G1 X128.81 Y67.201 E2.88182
G1 X128.277 Y67.201 E.01673
G1 X193.78 Y132.705 E2.90549
G1 X193.78 Y133.238 E.01673
G1 X127.743 Y67.201 E2.92915
G1 X127.21 Y67.201 E.01673
G1 X193.78 Y133.772 E2.95281
G1 X193.78 Y134.305 E.01673
G1 X126.676 Y67.201 E2.97647
G1 X126.143 Y67.201 E.01673
G1 X193.78 Y134.838 E3.00013
G1 X193.78 Y135.372 E.01673
M73 P3 R166
G1 X125.609 Y67.201 E3.02379
G1 X125.076 Y67.201 E.01673
G1 X193.78 Y135.905 E3.04746
G1 X193.78 Y136.439 E.01673
G1 X124.542 Y67.201 E3.07112
G1 X124.009 Y67.201 E.01673
G1 X193.78 Y136.972 E3.09478
G1 X193.78 Y137.506 E.01673
G1 X123.476 Y67.201 E3.11844
G1 X122.942 Y67.201 E.01673
M73 Q3 S166
G1 X193.78 Y138.039 E3.1421
G1 X193.78 Y138.573 E.01673
G1 X122.409 Y67.201 E3.16576
G1 X121.875 Y67.201 E.01673
M73 P4 R166
M73 Q4 S166
G1 X193.78 Y139.106 E3.18943
G1 X193.78 Y139.639 E.01673
G1 X121.342 Y67.201 E3.21309
G1 X120.808 Y67.201 E.01673
G1 X193.78 Y140.173 E3.23675
G1 X193.78 Y140.706 E.01673
G1 X120.275 Y67.201 E3.26041
G1 X119.741 Y67.201 E.01673
G1 X193.78 Y141.24 E3.28407
G1 X193.78 Y141.773 E.01673
M73 P4 R165
G1 X119.208 Y67.201 E3.30773
G1 X118.675 Y67.201 E.01673
G1 X193.78 Y142.307 E3.3314
G1 X193.78 Y142.799 E.01544
G1 X193.739 Y142.799 E.00129
G1 X118.141 Y67.201 E3.35323
G1 X117.608 Y67.201 E.01673
G1 X193.205 Y142.799 E3.35323
G1 X192.672 Y142.799 E.01673
M73 Q4 S165
G1 X117.074 Y67.201 E3.35323
G1 X116.541 Y67.201 E.01673
G1 X192.139 Y142.799 E3.35323
G1 X191.605 Y142.799 E.01673
G1 X116.007 Y67.201 E3.35323
G1 X115.474 Y67.201 E.01673
G1 X191.072 Y142.799 E3.35323
G1 X190.538 Y142.799 E.01673
G1 X114.94 Y67.201 E3.35323
G1 X114.407 Y67.201 E.01673
G1 X190.005 Y142.799 E3.35323
G1 X189.471 Y142.799 E.01673
G1 X113.874 Y67.201 E3.35323
G1 X113.34 Y67.201 E.01673
M73 P4 R164
G1 X188.938 Y142.799 E3.35323
G1 X188.404 Y142.799 E.01673
G1 X112.807 Y67.201 E3.35323
G1 X112.273 Y67.201 E.01673
G1 X187.871 Y142.799 E3.35323
G1 X187.338 Y142.799 E.01673
M73 P5 R164
M73 Q5 S165
G1 X111.74 Y67.201 E3.35323
G1 X111.206 Y67.201 E.01673
M73 Q5 S164
G1 X186.804 Y142.799 E3.35323
G1 X186.271 Y142.799 E.01673
G1 X110.673 Y67.201 E3.35323
G1 X110.139 Y67.201 E.01673
G1 X185.737 Y142.799 E3.35323
G1 X185.204 Y142.799 E.01673
G1 X109.606 Y67.201 E3.35323
G1 X109.073 Y67.201 E.01673
G1 X184.67 Y142.799 E3.35323
G1 X184.137 Y142.799 E.01673
G1 X108.539 Y67.201 E3.35323
G1 X108.006 Y67.201 E.01673
G1 X183.603 Y142.799 E3.35323
G1 X183.07 Y142.799 E.01673
M73 P5 R163
G1 X107.472 Y67.201 E3.35323
G1 X106.939 Y67.201 E.01673
G1 X182.537 Y142.799 E3.35323
G1 X182.003 Y142.799 E.01673
G1 X106.405 Y67.201 E3.35323
G1 X105.872 Y67.201 E.01673
G1 X181.47 Y142.799 E3.35323
G1 X180.936 Y142.799 E.01673
G1 X105.338 Y67.201 E3.35323
G1 X104.805 Y67.201 E.01673
M73 Q5 S163
G1 X180.403 Y142.799 E3.35323
G1 X179.869 Y142.799 E.01673
G1 X104.272 Y67.201 E3.35323
G1 X103.738 Y67.201 E.01673
G1 X179.336 Y142.799 E3.35323
G1 X178.802 Y142.799 E.01673
G1 X103.205 Y67.201 E3.35323
G1 X102.671 Y67.201 E.01673
G1 X178.269 Y142.799 E3.35323
G1 X177.736 Y142.799 E.01673
G1 X102.138 Y67.201 E3.35323
G1 X101.604 Y67.201 E.01673
M73 P5 R162
G1 X177.202 Y142.799 E3.35323
G1 X176.669 Y142.799 E.01673
M73 P6 R162
M73 Q6 S163
G1 X101.071 Y67.201 E3.35323
G1 X100.537 Y67.201 E.01673
G1 X176.135 Y142.799 E3.35323
G1 X175.602 Y142.799 E.01673
G1 X100.004 Y67.201 E3.35323
G1 X99.471 Y67.201 E.01673
G1 X175.068 Y142.799 E3.35323
G1 X174.535 Y142.799 E.01673
M73 Q6 S162
G1 X98.937 Y67.201 E3.35323
G1 X98.404 Y67.201 E.01673
G1 X174.001 Y142.799 E3.35323
G1 X173.468 Y142.799 E.01673
G1 X97.87 Y67.201 E3.35323
G1 X97.337 Y67.201 E.01673
G1 X172.934 Y142.799 E3.35323
G1 X172.401 Y142.799 E.01673
G1 X96.803 Y67.201 E3.35323
G1 X96.27 Y67.201 E.01673
G1 X171.868 Y142.799 E3.35323
G1 X171.334 Y142.799 E.01673
M73 P6 R161
G1 X95.736 Y67.201 E3.35323
G1 X95.203 Y67.201 E.01673
G1 X170.801 Y142.799 E3.35323
G1 X170.267 Y142.799 E.01673
G1 X94.67 Y67.201 E3.35323
G1 X94.136 Y67.201 E.01673
G1 X169.734 Y142.799 E3.35323
G1 X169.2 Y142.799 E.01673
G1 X93.603 Y67.201 E3.35323
G1 X93.069 Y67.201 E.01673
M73 Q6 S161
G1 X168.667 Y142.799 E3.35323
G1 X168.133 Y142.799 E.01673
G1 X92.536 Y67.201 E3.35323
G1 X92.002 Y67.201 E.01673
G1 X167.6 Y142.799 E3.35323
G1 X167.067 Y142.799 E.01673
G1 X91.469 Y67.201 E3.35323
G1 X90.935 Y67.201 E.01673
M73 P7 R161
M73 Q7 S161
G1 X166.533 Y142.799 E3.35323
G1 X166 Y142.799 E.01673
G1 X90.402 Y67.201 E3.35323
G1 X89.869 Y67.201 E.01673
M73 P7 R160
G1 X165.466 Y142.799 E3.35323
G1 X164.933 Y142.799 E.01673
G1 X89.335 Y67.201 E3.35323
G1 X88.802 Y67.201 E.01673
G1 X164.399 Y142.799 E3.35323
G1 X163.866 Y142.799 E.01673
G1 X88.268 Y67.201 E3.35323
G1 X87.735 Y67.201 E.01673
G1 X163.332 Y142.799 E3.35323
G1 X162.799 Y142.799 E.01673
M73 Q7 S160
G1 X87.201 Y67.201 E3.35323
G1 X86.668 Y67.201 E.01673
G1 X162.266 Y142.799 E3.35323
G1 X161.732 Y142.799 E.01673
G1 X86.134 Y67.201 E3.35323
G1 X85.601 Y67.201 E.01673
G1 X161.199 Y142.799 E3.35323
G1 X160.665 Y142.799 E.01673
G1 X85.067 Y67.201 E3.35323
G1 X84.534 Y67.201 E.01673
G1 X160.132 Y142.799 E3.35323
G1 X159.598 Y142.799 E.01673
G1 X84.001 Y67.201 E3.35323
G1 X83.467 Y67.201 E.01673
M73 P7 R159
G1 X159.065 Y142.799 E3.35323
G1 X158.531 Y142.799 E.01673
G1 X82.934 Y67.201 E3.35323
G1 X82.4 Y67.201 E.01673
G1 X157.998 Y142.799 E3.35323
G1 X157.465 Y142.799 E.01673
G1 X81.867 Y67.201 E3.35323
G1 X81.333 Y67.201 E.01673
M73 Q7 S159
G1 X156.931 Y142.799 E3.35323
G1 X156.398 Y142.799 E.01673
M73 P8 R159
M73 Q8 S159
G1 X80.8 Y67.201 E3.35323
G1 X80.266 Y67.201 E.01673
G1 X155.864 Y142.799 E3.35323
G1 X155.331 Y142.799 E.01673
G1 X79.733 Y67.201 E3.35323
G1 X79.2 Y67.201 E.01673
G1 X154.797 Y142.799 E3.35323
G1 X154.264 Y142.799 E.01673
G1 X78.666 Y67.201 E3.35323
G1 X78.133 Y67.201 E.01673
G1 X153.73 Y142.799 E3.35323
G1 X153.197 Y142.799 E.01673
M73 P8 R158
G1 X77.599 Y67.201 E3.35323
G1 X77.066 Y67.201 E.01673
G1 X152.664 Y142.799 E3.35323
G1 X152.13 Y142.799 E.01673
G1 X76.532 Y67.201 E3.35323
G1 X75.999 Y67.201 E.01673
